X: 37956
T: Spanish Lady
R: polka
M: 2/4
K: Dmajor
FG AB/c/|de de/f/|{a}ge {g}fd|{c}BA A>G||
FG AB/c/|de de/f/|{a}ge {g}fd|{c}BA A2||
fa {b}a (3f/g/f/|(3e/f/e/ d/c/ de|fa {b}a (3f/g/f/|(3e/f/e/ d e2||
fa {b}a (3f/g/f/|(3e/f/e/ d/c/ de/f/|{a}ge {g}fd|{c}BA A2||

